X: 60
T: Portsmouth
B: begged borrowed and stolen
B: ralph
B: to learn
M:2/4
L:1/8
R: hornpipe
Q: 1/4=100
K:Gmajor
V:1 
D|:   "G"G>A B/A/G/F/|   "C"E2e2|   "G"dB c/B/A/G/|   "D"A/G/F/E/ DD | 
  "G"G>A B/A/G/F/|   "C"E2e2|   "G"dB "D"c/B/A|   "G"G4 :|
|:  "G"g>a  b/a/g/f/|   gd Bd|  "C" ed c/B/A/G/| "D"  A3 D|  
 "G"G>A B/A/G/F/| "C"  E2e2|  "G" dB "D"c/B/A/B/|  "G" G4:|
% abcbook-tune_id 62828a3a3abfd2a232577b9f
% abcbook-link-0 https://www.youtube.com/watch?v=L3qEpFaxkQk
% abcbook-link-title-0 John Graham Donaldson  - The Portsmouth Hornpipe

% abcbook-boost 0
% abcbook-tablature 
% abcbook-transpose 
% abcbook-lastupdated 1666790176211
% abcbook-soundfonts 
% abcbook-repeats 3
% abc-sessionorg_id 2466
% abc-sessionorg_setting 0
% abc-sessionorg_setting_id 2466
% abc-boost 0

